img/svg/home.svg

<svg width="12" height="12" viewBox="0 0 12 12" fill="none" xmlns="http://www.w3.org/2000/svg">
<path d="M10.5746 11.6812H8.11836C7.51836 11.6812 7.01211 11.1938 7.01211 10.575V8.5875C7.01211 8.4375 6.89961 8.325 6.74961 8.325H5.24961C5.09961 8.325 4.98711 8.4375 4.98711 8.5875V10.575C4.98711 11.1938 4.49961 11.6812 3.88086 11.6812H1.42461C0.824609 11.6812 0.318359 11.1938 0.318359 10.575V4.25625C0.318359 3.9375 0.468359 3.65625 0.730859 3.4875L5.51211 0.46875C5.81211 0.28125 6.18711 0.28125 6.46836 0.46875L11.2496 3.50625C11.5121 3.675 11.6621 3.95625 11.6621 4.275V10.575C11.6809 11.175 11.1746 11.6812 10.5746 11.6812ZM5.24961 7.48125H6.74961C7.36836 7.48125 7.85586 7.96875 7.85586 8.5875V10.575C7.85586 10.725 7.96836 10.8375 8.11836 10.8375H10.5746C10.7246 10.8375 10.8371 10.725 10.8371 10.575V4.25625C10.8371 4.2375 10.8184 4.21875 10.8184 4.2L6.01836 1.18125C5.99961 1.1625 5.98086 1.1625 5.96211 1.18125L1.19961 4.2C1.18086 4.21875 1.16211 4.2375 1.16211 4.25625V10.575C1.16211 10.725 1.27461 10.8375 1.42461 10.8375H3.88086C4.03086 10.8375 4.14336 10.725 4.14336 10.575V8.5875C4.14336 7.9875 4.63086 7.48125 5.24961 7.48125Z" fill="#111928"/>
</svg>

<?xml version="1.0" encoding="utf-8"?><svg width="12" height="12" xmlns="http://www.w3.org/2000/svg" viewBox="0 0 12 12"><path d="M10.575 11.681H8.118c-.6 0-1.106-.487-1.106-1.106V8.588a.256.256 0 0 0-.262-.263h-1.5a.256.256 0 0 0-.263.263v1.987c0 .619-.487 1.106-1.106 1.106H1.425c-.6 0-1.107-.487-1.107-1.106V4.256c0-.319.15-.6.413-.769L5.512.47a.883.883 0 0 1 .956 0l4.782 3.037c.262.169.412.45.412.769v6.3c.019.6-.487 1.106-1.087 1.106Zm-5.325-4.2h1.5c.618 0 1.106.488 1.106 1.107v1.987c0 .15.112.263.262.263h2.457c.15 0 .262-.113.262-.263V4.256c0-.019-.019-.037-.019-.056l-4.8-3.019c-.018-.018-.037-.018-.056 0L1.2 4.2c-.02.019-.038.037-.038.056v6.319c0 .15.113.263.263.263H3.88c.15 0 .262-.113.262-.263V8.588c0-.6.488-1.107 1.107-1.107Z"/></svg>
